svg/SJJB-OpenStreetMapIcons/shopping/video_rental.svg

<?xml version="1.0" encoding="UTF-8" standalone="no"?>
<!-- Created with Inkscape (http://www.inkscape.org/) -->

<svg
   xmlns:dc="http://purl.org/dc/elements/1.1/"
   xmlns:cc="http://creativecommons.org/ns#"
   xmlns:rdf="http://www.w3.org/1999/02/22-rdf-syntax-ns#"
   xmlns:svg="http://www.w3.org/2000/svg"
   xmlns="http://www.w3.org/2000/svg"
   xmlns:sodipodi="http://sodipodi.sourceforge.net/DTD/sodipodi-0.dtd"
   xmlns:inkscape="http://www.inkscape.org/namespaces/inkscape"
   version="1.0"
   width="580"
   height="580"
   id="svg2"
   sodipodi:version="0.32"
   inkscape:version="0.47 r22583"
   sodipodi:docname="tourist_cinema2.svg"
   inkscape:output_extension="org.inkscape.output.svg.inkscape">
  <metadata
     id="metadata10">
    <rdf:RDF>
      <cc:Work
         rdf:about="">
        <dc:format>image/svg+xml</dc:format>
        <dc:type
           rdf:resource="http://purl.org/dc/dcmitype/StillImage" />
        <cc:license
           rdf:resource="http://web.resource.org/cc/PublicDomain" />
        <dc:language>en</dc:language>
        <dc:title></dc:title>
      </cc:Work>
    </rdf:RDF>
  </metadata>
  <sodipodi:namedview
     inkscape:window-height="1003"
     inkscape:window-width="1400"
     inkscape:pageshadow="2"
     inkscape:pageopacity="0.0"
     guidetolerance="10.0"
     gridtolerance="10.0"
     objecttolerance="10.0"
     borderopacity="1.0"
     bordercolor="#666666"
     pagecolor="#ffffff"
     id="base"
     showgrid="false"
     inkscape:zoom="0.79655172"
     inkscape:cx="60.568354"
     inkscape:cy="253.54186"
     inkscape:window-x="-4"
     inkscape:window-y="-4"
     inkscape:current-layer="svg2"
     inkscape:window-maximized="0" />
  <defs
     id="defs4">
    <inkscape:perspective
       sodipodi:type="inkscape:persp3d"
       inkscape:vp_x="0 : 290 : 1"
       inkscape:vp_y="0 : 1000 : 0"
       inkscape:vp_z="580 : 290 : 1"
       inkscape:persp3d-origin="290 : 193.33333 : 1"
       id="perspective12" />
    <inkscape:perspective
       id="perspective2539"
       inkscape:persp3d-origin="16 : 10.666667 : 1"
       inkscape:vp_z="32 : 16 : 1"
       inkscape:vp_y="0 : 1000 : 0"
       inkscape:vp_x="0 : 16 : 1"
       sodipodi:type="inkscape:persp3d" />
    <inkscape:perspective
       id="perspective18697"
       inkscape:persp3d-origin="0.5 : 0.33333333 : 1"
       inkscape:vp_z="1 : 0.5 : 1"
       inkscape:vp_y="0 : 1000 : 0"
       inkscape:vp_x="0 : 0.5 : 1"
       sodipodi:type="inkscape:persp3d" />
    <inkscape:perspective
       id="perspective18782"
       inkscape:persp3d-origin="0.5 : 0.33333333 : 1"
       inkscape:vp_z="1 : 0.5 : 1"
       inkscape:vp_y="0 : 1000 : 0"
       inkscape:vp_x="0 : 0.5 : 1"
       sodipodi:type="inkscape:persp3d" />
  </defs>
  <g
     id="g1327">
    <path
       d="M 66.275,1.768 C 24.94,1.768 1.704,23.139 1.704,66.804 L 1.704,516.927 C 1.704,557.771 22.598,579.156 63.896,579.156 L 515.92,579.156 C 557.227,579.156 578.149,558.84 578.149,516.927 L 578.149,66.804 C 578.149,24.203 557.227,1.768 514.627,1.768 C 514.624,1.768 66.133,1.625 66.275,1.768 z"
       style="fill:#111111;stroke:#eeeeee;stroke-width:3.40799999"
       id="path1329" />
  </g>
  <g
     id="g18718"
     transform="matrix(1.0554629,0,0,1.0554629,5.236952,67.002564)">
    <path
       id="rect3391"
       d="M 317.40625,102 C 314.79389,103.87499 312.32864,105.97454 309.9375,108.1875 L 318.59375,126.1875 L 304.78125,132.84375 L 298.28125,119.3125 C 295.93663,121.42726 293.54702,123.41115 291,125.125 L 318.28125,181.84375 L 189.78125,243.6875 L 155.5,172.4375 C 154.90688,172.67767 154.33197,172.93925 153.75,173.21875 C 147.97758,176.0395 142.74849,180.76877 137.65625,185.8125 L 148.8125,180.4375 L 159.5625,202.71875 L 145.75,209.375 L 135.46875,188 C 133.63637,189.84312 131.80866,191.71473 129.96875,193.5 L 262.875,469.71875 C 265.63849,466.94085 268.41773,464.13055 271.25,461.53125 L 267.875,463.15625 L 257.125,440.875 L 270.9375,434.21875 L 280.59375,454.3125 C 281.42844,453.81363 282.29811,453.35684 283.15625,452.9375 C 285.16759,451.97154 287.24435,451.26566 289.375,450.71875 L 260.75,391.1875 L 389.25,329.375 L 424.1875,402 C 433.11182,394.8094 440.70356,384.96976 450.78125,379.15625 L 317.40625,102 z M 332.28125,154.6875 L 343,176.96875 L 329.21875,183.59375 L 318.5,161.3125 L 332.28125,154.6875 z M 324.125,194.03125 L 383.40625,317.21875 L 254.90625,379.03125 L 195.625,255.84375 L 324.125,194.03125 z M 356.71875,205.4375 L 367.4375,227.71875 L 353.625,234.34375 L 342.90625,212.0625 L 356.71875,205.4375 z M 173.25,231.1875 L 183.96875,253.46875 L 170.1875,260.125 L 159.4375,237.84375 L 173.25,231.1875 z M 381.125,256.1875 L 391.84375,278.46875 L 378.0625,285.125 L 367.34375,262.8125 L 381.125,256.1875 z M 197.65625,281.96875 L 208.40625,304.25 L 194.59375,310.875 L 183.875,288.59375 L 197.65625,281.96875 z M 405.5625,306.9375 L 416.28125,329.21875 L 402.46875,335.875 L 391.75,313.59375 L 405.5625,306.9375 z M 222.09375,332.71875 L 232.8125,355 L 219.03125,361.625 L 208.28125,339.34375 L 222.09375,332.71875 z M 429.96875,357.6875 L 440.6875,380 L 426.90625,386.625 L 416.1875,364.34375 L 429.96875,357.6875 z M 246.53125,383.46875 L 257.25,405.75 L 243.4375,412.40625 L 232.71875,390.09375 L 246.53125,383.46875 z"
       style="fill:#ffffff;fill-opacity:1;stroke:none" />
    <path
       id="rect3445"
       d="M 291,125.125 C 289.30153,126.26787 287.53347,127.29214 285.6875,128.15625 C 270.70905,134.83823 251.35034,131.44609 236.5625,137.71875 C 221.4956,143.92126 211.46456,159.39816 197.5,165.4375 C 184.27142,170.97234 168.57887,167.14145 155.5,172.4375 L 189.78125,243.6875 L 318.28125,181.84375 L 291,125.125 z"
       style="opacity:0.3317308;fill:#ffffff;fill-opacity:1;stroke:none" />
    <rect
       transform="matrix(0.9011117,-0.433587,0.433587,0.9011117,0,0)"
       y="315.35901"
       x="65.3433"
       height="136.71181"
       width="142.60457"
       id="rect3447"
       style="opacity:0.3317308;fill:#ffffff;fill-opacity:1;stroke:none" />
    <path
       id="rect3449"
       d="M 389.25,329.375 L 260.75,391.1875 L 289.375,450.6875 C 301.4534,447.58953 315.12121,450.07405 326.875,445.15625 C 340.83956,439.11691 350.90186,423.64003 365.96875,417.4375 C 380.75659,411.16485 400.11531,414.55698 415.09375,407.875 C 418.35625,406.34781 421.3307,404.30181 424.1875,402 L 389.25,329.375 z"
       style="opacity:0.3317308;fill:#ffffff;fill-opacity:1;stroke:none" />
  </g>
  <g
     id="g2303"
     transform="matrix(1.1575693,0,0,1.1575693,66.550633,26.187697)"
     style="fill:#ffffff;fill-opacity:1;stroke:#ffffff;stroke-width:10;stroke-linecap:round;stroke-linejoin:round;stroke-miterlimit:4;stroke-opacity:1;stroke-dasharray:none">
    <g
       id="g2305"
       style="fill:#ffffff;fill-opacity:1;stroke:#ffffff;stroke-width:10;stroke-linecap:round;stroke-linejoin:round;stroke-miterlimit:4;stroke-opacity:1;stroke-dasharray:none">
      <path
         style="fill:#ffffff;fill-opacity:1;stroke:#ffffff;stroke-width:10.00000095;stroke-linecap:round;stroke-linejoin:round;stroke-miterlimit:4;stroke-opacity:1;stroke-dasharray:none"
         d="M 100.25,5.75 C 60.335317,5.4974281 26.826507,47.079175 35.324049,86.079571 C 40.899839,118.70779 72.527534,145.59302 106.15625,142.28125 C 128.63909,140.89286 149.66527,127.49806 160.96875,108.1875 C 171.22308,100.14266 186.5403,110.7971 196.625,102.125 C 203.52011,94.990233 209.28493,85.495716 219,82.28125 C 226.79207,84.482581 230.2873,92.927779 236.71875,96.84375 C 243.17665,92.70632 246.9099,82.864282 255.75,82.90625 C 262.00373,86.670488 265.96886,93.31314 271.875,97.25 C 278.58404,92.957363 282.56064,82.699357 291.6875,82.6875 C 298.0679,86.28521 301.59369,93.796619 308.25,96.65625 C 317.51043,88.304078 326.98735,79.656571 334.71875,69.71875 C 334.69063,64.095915 327.08245,60.980337 324.06234,56.381768 C 317.78098,50.838171 312.47635,40.600972 302.59375,42.71875 C 289.22865,43.785674 275.56059,42.397209 262.0625,42.9375 C 229.36594,42.923262 196.41274,43.721279 163.875,42.125 C 154.95723,34.457888 150.20766,22.500694 139.25,17.0625 C 127.86772,9.4689786 114.03062,5.323508 100.25,5.75 z M 73.09375,50.53125 C 92.620948,50.045026 104.27829,77.77724 90.09375,91.25 C 78.614364,103.88316 54.044314,99.821659 49.21875,82.875 C 43.869693,67.719648 56.328438,48.853256 73.09375,50.53125 z"
         id="path2307" />
      <path
         style="fill:#ffffff;fill-opacity:1;stroke:#ffffff;stroke-width:10;stroke-linecap:round;stroke-linejoin:round;stroke-miterlimit:4;stroke-opacity:1;stroke-dasharray:none"
         id="path2309"
         d="" />
    </g>
  </g>
</svg>

<svg xmlns="http://www.w3.org/2000/svg" viewBox="0 0 580 580"><path d="m66.28 1.768c-41.34 0-64.57 21.371-64.57 65.04v450.12c0 40.844 20.894 62.23 62.19 62.23h452.02c41.31 0 62.23-20.316 62.23-62.23v-450.12c0-42.601-20.922-65.04-63.52-65.04-.003 0-448.49-.143-448.35 0z" fill="#111" stroke="#eee" stroke-width="3.408"/><g transform="matrix(1.05546 0 0 1.05546 5.237 67)" fill="#fff"><path d="m317.41 102c-2.612 1.875-5.078 3.975-7.469 6.188l8.656 18-13.813 6.656-6.5-13.531c-2.345 2.115-4.734 4.099-7.281 5.813l27.28 56.719-128.5 61.844-34.28-71.25c-.593.24-1.168.502-1.75.781-5.772 2.821-11 7.55-16.09 12.594l11.156-5.375 10.75 22.281-13.813 6.656-10.281-21.375c-1.832 1.843-3.66 3.715-5.5 5.5l132.91 276.22c2.763-2.778 5.543-5.588 8.375-8.188l-3.375 1.625-10.75-22.281 13.813-6.656 9.656 20.09c.835-.499 1.704-.956 2.563-1.375 2.01-.966 4.088-1.672 6.219-2.219l-28.625-59.53 128.5-61.813 34.938 72.62c8.924-7.191 16.516-17.03 26.594-22.844l-133.37-277.16m14.875 52.688l10.719 22.281-13.781 6.625-10.719-22.281 13.781-6.625m-8.156 39.34l59.28 123.19-128.5 61.813-59.28-123.19 128.5-61.813m32.594 11.406l10.719 22.281-13.813 6.625-10.719-22.281 13.813-6.625m-183.47 25.75l10.719 22.281-13.781 6.656-10.75-22.281 13.813-6.656m207.87 25l10.719 22.281-13.781 6.656-10.719-22.313 13.781-6.625m-183.47 25.781l10.75 22.281-13.813 6.625-10.719-22.281 13.781-6.625m207.91 24.969l10.719 22.281-13.813 6.656-10.719-22.281 13.813-6.656m-183.47 25.781l10.719 22.281-13.781 6.625-10.75-22.281 13.813-6.625m207.87 24.969l10.719 22.313-13.781 6.625-10.719-22.281 13.781-6.656m-183.44 25.781l10.719 22.281-13.813 6.656-10.719-22.313 13.813-6.625"/><path d="m291 125.12c-1.698 1.143-3.467 2.167-5.313 3.03-14.978 6.682-34.34 3.29-49.12 9.563-15.07 6.203-25.1 21.679-39.06 27.719-13.229 5.535-28.921 1.704-42 7l34.28 71.25 128.5-61.844-27.28-56.719" opacity=".332"/><path transform="matrix(.90111-.43359.43359.90111 0 0)" opacity=".332" d="m65.34 315.36h142.6v136.71h-142.6z"/><path d="m389.25 329.37l-128.5 61.813 28.625 59.5c12.08-3.098 25.746-.613 37.5-5.531 13.965-6.04 24.03-21.516 39.09-27.719 14.788-6.273 34.15-2.881 49.12-9.563 3.262-1.527 6.237-3.573 9.09-5.875l-34.938-72.62" opacity=".332"/></g><g transform="matrix(1.15757 0 0 1.15757 66.55 26.19)" fill="#fff" stroke="#fff" stroke-linejoin="round" stroke-linecap="round" stroke-width="10"><path d="m100.25 5.75c-39.915-.253-73.42 41.33-64.926 80.33 5.576 32.628 37.2 59.51 70.832 56.2 22.483-1.388 43.509-14.783 54.813-34.09 10.254-8.04 25.572 2.61 35.656-6.06 6.895-7.135 12.66-16.629 22.375-19.844 7.792 2.201 11.287 10.647 17.719 14.563 6.458-4.137 10.191-13.979 19.03-13.938 6.254 3.764 10.219 10.407 16.12 14.344 6.709-4.293 10.686-14.551 19.813-14.563 6.38 3.598 9.906 11.11 16.563 13.969 9.26-8.352 18.737-17 26.469-26.938-.028-5.623-7.636-8.738-10.656-13.337-6.281-5.544-11.586-15.781-21.469-13.663-13.365 1.067-27.03-.322-40.531.219-32.697-.014-65.65.784-98.19-.813-8.918-7.667-13.667-19.624-24.625-25.06-11.382-7.594-25.22-11.739-39-11.313zm-27.16 44.781c19.527-.486 31.18 27.25 17 40.719-11.479 12.633-36.05 8.572-40.875-8.375-5.349-15.16 7.11-34.02 23.875-32.34z" fill="#fff" stroke="#fff" stroke-width="10"/></g></svg>
